X:494
T:My Darling Asleep
M:6/8
L:1/8
K:D
"D"fed "A"cAA|"G"BGG "D"A2 G|FAA def|"G"~g3 "A"eag|\
"D"fed "A"cAA|"G"BGG "D"A2 G|
FAA def|"A"gec "D"d3:||:"D"FAA Add|FAA "G"BGG|"D"FAA def|"G"~g3 "A"eag|
"D"fed "A"cAA|"G"BGG "D"A2 G|FAA def|"A"gec "D"d3:|
